!!!COM: Palestrina, Giovanni Perluigi da
!!!OPR: Missa O sacrum convivium
!!!OMD: Sanctus
!!!OTL: Pleni
**kern	**kern	**kern	**kern
*Ibass	*Itenor	*Itenor	*Icalto
!Bassus	!Tenor 2	!Tenor 1	!Altus
*clefF4	*clefGv2	*clefGv2	*clefG2
*k[b-]	*k[b-]	*k[b-]	*k[b-]
*F:ion	*F:ion	*F:ion	*F:ion
*M4/2	*M4/2	*M4/2	*M4/2
=37	=37	=37	=37
0r	1c	0r	0r
.	2B-	.	.
.	2c	.	.
=38	=38	=38	=38
1F	1A	0r	0r
2E	2G	.	.
2F	2A	.	.
=39	=39	=39	=39
1D	4F	0r	1f
.	4G	.	.
.	4A	.	.
.	4B-	.	.
2C	2c	.	2e
[2BB-	[2d	.	2f
=40	=40	=40	=40
2BB-]	2d]	1r	2d
2C	1c	.	2e
1D	.	2r	1f
.	2B-	2f	.
=41	=41	=41	=41
2C	2c	2e	0r
1c	2F	2f	.
.	1G	1d	.
2B-	.	.	.
=42	=42	=42	=42
2c	0r	4c	1cc
.	.	4d	.
2A	.	4e	.
.	.	4f	.
2G	.	2g	2b-
2A	.	2e	2cc
=43	=43	=43	=43
1F	0r	1f	1a
2C	.	2e	2g
2D	.	[2f	2f
=44	=44	=44	=44
1C	1r	2f]	1g
.	.	2e	.
1F	2r	2.f	1a
.	2c	.	.
.	.	4e	.
=45	=45	=45	=45
0r	2B-	2d	2g
.	2c	2e	1g
.	1A	1c	.
.	.	.	2f
=46	=46	=46	=46
0r	2G	2r	2g
.	2F	1c	1a
.	1G	.	.
.	.	2B-	[2g
=47	=47	=47	=47
2r	1A	1c	2g]
2c	.	.	2f
2B	2G	2d	1g
2c	[2g	2e	.
=48	=48	=48	=48
1A	2g]	1c	1cc
.	2f#	.	.
2G	2g	2d	2b-
[2F	[2c	[2f	2cc
=49	=49	=49	=49
2F]	2c]	4f]	2a
.	.	4e	.
2G	2B	2.d	1g
1A	1c	.	.
.	.	4c	.
.	.	[2c	2f
=50	=50	=50	=50
1G	1d	2c]	1g
.	.	2B	.
2.C	1e	[1c	2g
.	.	.	[2g
4D	.	.	.
=51	=51	=51	=51
2E	1r	0c]	2g]
2F	.	.	2a
1C	2r	.	2g
.	[2c	.	4e
.	.	.	4f
=52	=52	=52	=52
1r	2c]	0r	4g
.	.	.	4e
.	2d	.	2f
2r	2c	.	2e
[2F	4A	.	[2a
.	4B-	.	.
=53	=53	=53	=53
2F]	4c	1r	2a]
.	4A	.	.
2G	2B-	.	2g
2F	2A	2r	1a
4D	[2d	[2f	.
4E	.	.	.
=54	=54	=54	=54
4F	2d]	2f]	1r
4D	.	.	.
2E	2c#	2g	.
2D	1d	2f	[1a
[2d	.	4d	.
.	.	4e	.
=55	=55	=55	=55
2d]	0r	4f	2a]
.	.	4d	.
2c	.	2e	2a
2B	.	2d	1g
2c	.	[2g	.
=56	=56	=56	=56
1A	0r	2g]	1.cc
.	.	2f	.
1G	.	2e	.
.	.	4d	2b-
.	.	4e	.
=57	=57	=57	=57
0F	2r	4f	4a
.	.	4g	4g
.	1c	2.a	4f
.	.	.	4e
.	.	.	1f
.	.	4g	.
.	2d	2f	.
=58	=58	=58	=58
0r	2c	2e	2g
.	4A	4c	1a
.	4B-	4d	.
.	4c	4e	.
.	4A	4f	.
.	2B-	[2d	2g
=59	=59	=59	=59
0r	1A	2d]	4f
.	.	.	4e
.	.	1c	4e
.	.	.	8d
.	.	.	8c
.	2G	.	1d
.	[2g	2B	.
=60	=60	=60	=60
2r	2g]	1c	1.e
1c	2a	.	.
.	2g	1r	.
2d	2f	.	2f
=61	=61	=61	=61
2c	1e	2r	2g
4A	.	1c	1a
4B-	.	.	.
4c	1r	.	.
4A	.	.	.
2B-	.	2d	2g
=62	=62	=62	=62
2A	2r	2c	1a
1F	1c	4A	.
.	.	4B-	.
.	.	4c	[1f
.	.	4A	.
2BB-	2d	2d	.
=63	=63	=63	=63
2.F	2c	2A	1f]
.	4A	2f	.
4G	4B-	.	.
2A	4c	2e	2r
.	4A	.	.
2B-	[2d	2d	[2g
=64	=64	=64	=64
2c	4d]	2e	2g]
.	4c	.	.
2F	1c	2f	2a
1G	.	1d	1g
.	2B	.	.
=65	=65	=65	=65
1C	1.c	2r	2.e
.	.	1g	.
.	.	.	4f
1r	.	.	4g
.	.	.	4e
.	2F	2a	2f
=66	=66	=66	=66
2r	1c	2g	2e
1C	.	4e	1c
.	.	4f	.
.	1r	4g	.
.	.	4e	.
2D	.	2f	2A
=67	=67	=67	=67
2C	2r	2.e	2.c
4AA	1c	.	.
4BB-	.	4d	4d
4C	.	2c	4e
4AA	.	.	4f
2BB-	2d	2B-	[2g
=68	=68	=68	=68
2C	2c	2.A	2g]
2D	4A	.	1f
.	4B-	4F	.
1C	4c	1G	.
.	4d	.	.
.	[2c	.	2e
=69	=69	=69	=69
1.F	4c]	2.A	[0f
.	4B-	.	.
.	4A	.	.
.	4G	4B-	.
.	2A	2c	.
2BB-	2B-	2d	.
=70	=70	=70	=70
0F	0A	0c	0f]
*-	*-	*-	*-
!!!CDT: 1525/^1526/-1594/2/2
!!!OCY: Italia
!!!AGN: Mass (Parody)
!!!AST: renaissance, vocal
!!!ASW: Motet (Morales)
!!!PWK: Masses, Book 8
!!!RNB: Cadence finals: C
!!!YOR: Le Opere Complete, v. 24, p. 227
!!!YOO: Rome, Italy: Fratelli Scalera
!!!END: 1992//
!!!EED: John Miller
!!!YEC: Copyright 2000, John Miller
!!!YEN: United States of America
!!!YEM: Rights to all derivative electronic formats reserved.
!!!YEM: Refer to licensing agreement for further details.
!!!YEM: This file must be accompanied by the licensing agreement.
!!!YEM: A copy of the licensing agreement may be found at http://www.music-cog.ohio-state.edu/HumdrumDatabases/Palestrina/license.txt
!!!EMD: converted to Humdrum by Bret Aarden
